; generated by Slic3r 1.1.7 on 2015-06-03 at 20:27:47

; perimeters extrusion width = 0.50mm
; infill extrusion width = 1.02mm
; solid infill extrusion width = 0.85mm
; top infill extrusion width = 0.85mm

G21 ; set units to millimeters
M107
M104 S200 ; set temperature
G28 ; home all axes
G1 Z5 F5000 ; lift nozzle

M109 S200 ; wait for temperature to be reached
G90 ; use absolute coordinates
G92 E0
M82 ; use absolute distances for extrusion
G1 F1800.000 E-1.00000
G92 E0
G1 Z0.350 F7800.000
G1 X33.884 Y34.741 F7800.000
G1 E1.00000 F1800.000
G1 X35.637 Y33.255 E1.07480 F600.000
G1 X37.792 Y32.453 E1.14960
G1 X39.000 Y32.343 E1.18906
G1 X41.000 Y32.343 E1.25413
G1 X43.265 Y32.740 E1.32893
G1 X45.259 Y33.884 E1.40373 F600.000
G1 X46.745 Y35.637 E1.47853
G1 X47.547 Y37.792 E1.55333
G1 X47.657 Y39.000 E1.59278
G1 X47.657 Y41.000 E1.65785
G1 X47.260 Y43.265 E1.73265
G1 X46.116 Y45.259 E1.80745
G1 X44.363 Y46.745 E1.88225
G1 X42.208 Y47.547 E1.95705
G1 X41.000 Y47.657 E1.99651
G1 X39.000 Y47.657 E2.06158
G1 X36.735 Y47.260 E2.13638
G1 X34.741 Y46.116 E2.21118
G1 X33.255 Y44.363 E2.28598
G1 X32.453 Y42.208 E2.36078
G1 X32.343 Y41.000 E2.40023
G1 X32.343 Y39.000 E2.46531
G1 X32.740 Y36.735 E2.54011
G1 X33.846 Y34.806 E2.61247
G1 F1800.000 E1.61247
G92 E0
G1 X40.650 Y40.650 F7800.000
G1 E1.00000 F1800.000
G1 X39.350 Y40.650 E1.04230 F600.000
G1 X39.350 Y39.350 E1.08459
G1 X40.650 Y39.350 E1.12689
G1 X40.650 Y40.575 E1.16674
G1 X40.217 Y40.400 F7800.000
G1 X40.194 Y39.846 F7800.000
G1 X40.154 Y39.806 E1.16858 F600.000
M106 S255
G1 F1800.000 E0.16858
G92 E0
G1 Z0.550 F7800.000
G1 X40.250 Y40.250 F7800.000
G1 E1.00000 F1800.000
G1 X39.750 Y40.250 E1.00707 F600.000
G1 X39.750 Y39.750 E1.01415
G1 X40.250 Y39.750 E1.02122
G1 X40.250 Y40.175 E1.02723
G1 X40.750 Y40.750 F7800.000
G1 X39.250 Y40.750 E1.04845 F600.000
G1 X39.250 Y39.250 E1.06967
G1 X40.750 Y39.250 E1.09090
G1 X40.750 Y40.675 E1.11105
G1 X40.317 Y40.500 F7800.000
G1 F1800.000 E0.11105
G92 E0
G1 Z0.750 F7800.000
G1 X40.250 Y40.250 F7800.000
G1 E1.00000 F1800.000
G1 X39.750 Y40.250 E1.00707 F600.000
G1 X39.750 Y39.750 E1.01415
G1 X40.250 Y39.750 E1.02122
G1 X40.250 Y40.175 E1.02723
G1 X40.750 Y40.750 F7800.000
G1 X39.250 Y40.750 E1.04845 F600.000
G1 X39.250 Y39.250 E1.06967
G1 X40.750 Y39.250 E1.09090
G1 X40.750 Y40.675 E1.11105
G1 X40.317 Y40.500 F7800.000
G1 F1800.000 E0.11105
G92 E0
G1 Z0.950 F7800.000
G1 X40.250 Y40.250 F7800.000
G1 E1.00000 F1800.000
G1 X39.750 Y40.250 E1.00707 F600.000
G1 X39.750 Y39.750 E1.01415
G1 X40.250 Y39.750 E1.02122
G1 X40.250 Y40.175 E1.02723
G1 X40.750 Y40.750 F7800.000
G1 X39.250 Y40.750 E1.04845 F600.000
G1 X39.250 Y39.250 E1.06967
G1 X40.750 Y39.250 E1.09090
G1 X40.750 Y40.675 E1.11105
G1 X40.317 Y40.500 F7800.000
G1 F1800.000 E0.11105
G92 E0
G1 Z1.150 F7800.000
G1 X40.250 Y40.250 F7800.000
G1 E1.00000 F1800.000
G1 X39.750 Y40.250 E1.00707 F600.000
G1 X39.750 Y39.750 E1.01415
G1 X40.250 Y39.750 E1.02122
G1 X40.250 Y40.175 E1.02723
G1 X40.750 Y40.750 F7800.000
G1 X39.250 Y40.750 E1.04845 F600.000
G1 X39.250 Y39.250 E1.06967
G1 X40.750 Y39.250 E1.09090
G1 X40.750 Y40.675 E1.11105
G1 X40.317 Y40.500 F7800.000
G1 F1800.000 E0.11105
G92 E0
G1 Z1.350 F7800.000
G1 X40.250 Y40.250 F7800.000
G1 E1.00000 F1800.000
G1 X39.750 Y40.250 E1.00707 F600.000
G1 X39.750 Y39.750 E1.01415
G1 X40.250 Y39.750 E1.02122
G1 X40.250 Y40.175 E1.02723
G1 X40.750 Y40.750 F7800.000
G1 X39.250 Y40.750 E1.04845 F600.000
G1 X39.250 Y39.250 E1.06967
G1 X40.750 Y39.250 E1.09090
G1 X40.750 Y40.675 E1.11105
G1 X40.317 Y40.500 F7800.000
G1 F1800.000 E0.11105
G92 E0
G1 Z1.550 F7800.000
G1 X40.250 Y40.250 F7800.000
G1 E1.00000 F1800.000
G1 X39.750 Y40.250 E1.00707 F600.000
G1 X39.750 Y39.750 E1.01415
G1 X40.250 Y39.750 E1.02122
G1 X40.250 Y40.175 E1.02723
G1 X40.750 Y40.750 F7800.000
G1 X39.250 Y40.750 E1.04845 F600.000
G1 X39.250 Y39.250 E1.06967
G1 X40.750 Y39.250 E1.09090
G1 X40.750 Y40.675 E1.11105
G1 X40.317 Y40.500 F7800.000
G1 F1800.000 E0.11105
G92 E0
G1 Z1.750 F7800.000
G1 X40.250 Y40.250 F7800.000
G1 E1.00000 F1800.000
G1 X39.750 Y40.250 E1.00707 F600.000
G1 X39.750 Y39.750 E1.01415
G1 X40.250 Y39.750 E1.02122
G1 X40.250 Y40.175 E1.02723
G1 X40.750 Y40.750 F7800.000
G1 X39.250 Y40.750 E1.04845 F600.000
G1 X39.250 Y39.250 E1.06967
G1 X40.750 Y39.250 E1.09090
G1 X40.750 Y40.675 E1.11105
G1 X40.317 Y40.500 F7800.000
G1 F1800.000 E0.11105
G92 E0
G1 Z1.950 F7800.000
G1 X40.250 Y40.250 F7800.000
G1 E1.00000 F1800.000
G1 X39.750 Y40.250 E1.00707 F600.000
G1 X39.750 Y39.750 E1.01415
G1 X40.250 Y39.750 E1.02122
G1 X40.250 Y40.175 E1.02723
G1 X40.750 Y40.750 F7800.000
G1 X39.250 Y40.750 E1.04845 F600.000
G1 X39.250 Y39.250 E1.06967
G1 X40.750 Y39.250 E1.09090
G1 X40.750 Y40.675 E1.11105
G1 X40.317 Y40.500 F7800.000
G1 F1800.000 E0.11105
G92 E0
G1 Z2.150 F7800.000
G1 X40.250 Y40.250 F7800.000
G1 E1.00000 F1800.000
G1 X39.750 Y40.250 E1.00707 F600.000
G1 X39.750 Y39.750 E1.01415
G1 X40.250 Y39.750 E1.02122
G1 X40.250 Y40.175 E1.02723
G1 X40.750 Y40.750 F7800.000
G1 X39.250 Y40.750 E1.04845 F600.000
G1 X39.250 Y39.250 E1.06967
G1 X40.750 Y39.250 E1.09090
G1 X40.750 Y40.675 E1.11105
G1 X40.317 Y40.500 F7800.000
G1 F1800.000 E0.11105
G92 E0
G1 Z2.350 F7800.000
G1 X40.250 Y40.250 F7800.000
G1 E1.00000 F1800.000
G1 X39.750 Y40.250 E1.00707 F600.000
G1 X39.750 Y39.750 E1.01415
G1 X40.250 Y39.750 E1.02122
G1 X40.250 Y40.175 E1.02723
G1 X40.750 Y40.750 F7800.000
G1 X39.250 Y40.750 E1.04845 F600.000
G1 X39.250 Y39.250 E1.06967
G1 X40.750 Y39.250 E1.09090
G1 X40.750 Y40.675 E1.11105
G1 X40.317 Y40.500 F7800.000
G1 F1800.000 E0.11105
G92 E0
G1 Z2.550 F7800.000
G1 X40.250 Y40.250 F7800.000
G1 E1.00000 F1800.000
G1 X39.750 Y40.250 E1.00707 F600.000
G1 X39.750 Y39.750 E1.01415
G1 X40.250 Y39.750 E1.02122
G1 X40.250 Y40.175 E1.02723
G1 X40.750 Y40.750 F7800.000
G1 X39.250 Y40.750 E1.04845 F600.000
G1 X39.250 Y39.250 E1.06967
G1 X40.750 Y39.250 E1.09090
G1 X40.750 Y40.675 E1.11105
G1 X40.317 Y40.500 F7800.000
G1 F1800.000 E0.11105
G92 E0
G1 Z2.750 F7800.000
G1 X40.250 Y40.250 F7800.000
G1 E1.00000 F1800.000
G1 X39.750 Y40.250 E1.00707 F600.000
G1 X39.750 Y39.750 E1.01415
G1 X40.250 Y39.750 E1.02122
G1 X40.250 Y40.175 E1.02723
G1 X40.750 Y40.750 F7800.000
G1 X39.250 Y40.750 E1.04845 F600.000
G1 X39.250 Y39.250 E1.06967
G1 X40.750 Y39.250 E1.09090
G1 X40.750 Y40.675 E1.11105
G1 X40.317 Y40.500 F7800.000
G1 F1800.000 E0.11105
G92 E0
G1 Z2.950 F7800.000
G1 X40.250 Y40.250 F7800.000
G1 E1.00000 F1800.000
G1 X39.750 Y40.250 E1.00707 F600.000
G1 X39.750 Y39.750 E1.01415
G1 X40.250 Y39.750 E1.02122
G1 X40.250 Y40.175 E1.02723
G1 X40.750 Y40.750 F7800.000
G1 X39.250 Y40.750 E1.04845 F600.000
G1 X39.250 Y39.250 E1.06967
G1 X40.750 Y39.250 E1.09090
G1 X40.750 Y40.675 E1.11105
G1 X40.317 Y40.500 F7800.000
G1 F1800.000 E0.11105
G92 E0
G1 Z3.150 F7800.000
G1 X40.250 Y40.250 F7800.000
G1 E1.00000 F1800.000
G1 X39.750 Y40.250 E1.00707 F600.000
G1 X39.750 Y39.750 E1.01415
G1 X40.250 Y39.750 E1.02122
G1 X40.250 Y40.175 E1.02723
G1 X40.750 Y40.750 F7800.000
G1 X39.250 Y40.750 E1.04845 F600.000
G1 X39.250 Y39.250 E1.06967
G1 X40.750 Y39.250 E1.09090
G1 X40.750 Y40.675 E1.11105
G1 X40.317 Y40.500 F7800.000
G1 F1800.000 E0.11105
G92 E0
G1 Z3.350 F7800.000
G1 X40.250 Y40.250 F7800.000
G1 E1.00000 F1800.000
G1 X39.750 Y40.250 E1.00707 F600.000
G1 X39.750 Y39.750 E1.01415
G1 X40.250 Y39.750 E1.02122
G1 X40.250 Y40.175 E1.02723
G1 X40.750 Y40.750 F7800.000
G1 X39.250 Y40.750 E1.04845 F600.000
G1 X39.250 Y39.250 E1.06967
G1 X40.750 Y39.250 E1.09090
G1 X40.750 Y40.675 E1.11105
G1 X40.317 Y40.500 F7800.000
G1 F1800.000 E0.11105
G92 E0
G1 Z3.550 F7800.000
G1 X40.250 Y40.250 F7800.000
G1 E1.00000 F1800.000
G1 X39.750 Y40.250 E1.00707 F600.000
G1 X39.750 Y39.750 E1.01415
G1 X40.250 Y39.750 E1.02122
G1 X40.250 Y40.175 E1.02723
G1 X40.750 Y40.750 F7800.000
G1 X39.250 Y40.750 E1.04845 F600.000
G1 X39.250 Y39.250 E1.06967
G1 X40.750 Y39.250 E1.09090
G1 X40.750 Y40.675 E1.11105
G1 X40.317 Y40.500 F7800.000
G1 F1800.000 E0.11105
G92 E0
G1 Z3.750 F7800.000
G1 X40.250 Y40.250 F7800.000
G1 E1.00000 F1800.000
G1 X39.750 Y40.250 E1.00707 F600.000
G1 X39.750 Y39.750 E1.01415
G1 X40.250 Y39.750 E1.02122
G1 X40.250 Y40.175 E1.02723
G1 X40.750 Y40.750 F7800.000
G1 X39.250 Y40.750 E1.04845 F600.000
G1 X39.250 Y39.250 E1.06967
G1 X40.750 Y39.250 E1.09090
G1 X40.750 Y40.675 E1.11105
G1 X40.317 Y40.500 F7800.000
G1 F1800.000 E0.11105
G92 E0
G1 Z3.950 F7800.000
G1 X40.250 Y40.250 F7800.000
G1 E1.00000 F1800.000
G1 X39.750 Y40.250 E1.00707 F600.000
G1 X39.750 Y39.750 E1.01415
G1 X40.250 Y39.750 E1.02122
G1 X40.250 Y40.175 E1.02723
G1 X40.750 Y40.750 F7800.000
G1 X39.250 Y40.750 E1.04845 F600.000
G1 X39.250 Y39.250 E1.06967
G1 X40.750 Y39.250 E1.09090
G1 X40.750 Y40.675 E1.11105
G1 X40.317 Y40.500 F7800.000
G1 F1800.000 E0.11105
G92 E0
G1 Z4.150 F7800.000
G1 X40.250 Y40.250 F7800.000
G1 E1.00000 F1800.000
G1 X39.750 Y40.250 E1.00707 F600.000
G1 X39.750 Y39.750 E1.01415
G1 X40.250 Y39.750 E1.02122
G1 X40.250 Y40.175 E1.02723
G1 X40.750 Y40.750 F7800.000
G1 X39.250 Y40.750 E1.04845 F600.000
G1 X39.250 Y39.250 E1.06967
G1 X40.750 Y39.250 E1.09090
G1 X40.750 Y40.675 E1.11105
G1 X40.317 Y40.500 F7800.000
G1 F1800.000 E0.11105
G92 E0
G1 Z4.350 F7800.000
G1 X40.250 Y40.250 F7800.000
G1 E1.00000 F1800.000
G1 X39.750 Y40.250 E1.00707 F600.000
G1 X39.750 Y39.750 E1.01415
G1 X40.250 Y39.750 E1.02122
G1 X40.250 Y40.175 E1.02723
G1 X40.750 Y40.750 F7800.000
G1 X39.250 Y40.750 E1.04845 F600.000
G1 X39.250 Y39.250 E1.06967
G1 X40.750 Y39.250 E1.09090
G1 X40.750 Y40.675 E1.11105
G1 X40.317 Y40.500 F7800.000
G1 F1800.000 E0.11105
G92 E0
G1 Z4.550 F7800.000
G1 X40.250 Y40.250 F7800.000
G1 E1.00000 F1800.000
G1 X39.750 Y40.250 E1.00707 F600.000
G1 X39.750 Y39.750 E1.01415
G1 X40.250 Y39.750 E1.02122
G1 X40.250 Y40.175 E1.02723
G1 X40.750 Y40.750 F7800.000
G1 X39.250 Y40.750 E1.04845 F600.000
G1 X39.250 Y39.250 E1.06967
G1 X40.750 Y39.250 E1.09090
G1 X40.750 Y40.675 E1.11105
G1 X40.317 Y40.500 F7800.000
G1 F1800.000 E0.11105
G92 E0
G1 Z4.750 F7800.000
G1 X40.250 Y40.250 F7800.000
G1 E1.00000 F1800.000
G1 X39.750 Y40.250 E1.00707 F600.000
G1 X39.750 Y39.750 E1.01415
G1 X40.250 Y39.750 E1.02122
G1 X40.250 Y40.175 E1.02723
G1 X40.750 Y40.750 F7800.000
G1 X39.250 Y40.750 E1.04845 F600.000
G1 X39.250 Y39.250 E1.06967
G1 X40.750 Y39.250 E1.09090
G1 X40.750 Y40.675 E1.11105
G1 X40.317 Y40.500 F7800.000
G1 F1800.000 E0.11105
G92 E0
G1 Z4.950 F7800.000
G1 X40.250 Y40.250 F7800.000
G1 E1.00000 F1800.000
G1 X39.750 Y40.250 E1.00707 F600.000
G1 X39.750 Y39.750 E1.01415
G1 X40.250 Y39.750 E1.02122
G1 X40.250 Y40.175 E1.02723
G1 X40.750 Y40.750 F7800.000
G1 X39.250 Y40.750 E1.04845 F600.000
G1 X39.250 Y39.250 E1.06967
G1 X40.750 Y39.250 E1.09090
G1 X40.750 Y40.675 E1.11105
G1 X40.317 Y40.500 F7800.000
G1 F1800.000 E0.11105
G92 E0
G1 Z5.150 F7800.000
G1 X40.250 Y40.250 F7800.000
G1 E1.00000 F1800.000
G1 X39.750 Y40.250 E1.00707 F600.000
G1 X39.750 Y39.750 E1.01415
G1 X40.250 Y39.750 E1.02122
G1 X40.250 Y40.175 E1.02723
G1 X40.750 Y40.750 F7800.000
G1 X39.250 Y40.750 E1.04845 F600.000
G1 X39.250 Y39.250 E1.06967
G1 X40.750 Y39.250 E1.09090
G1 X40.750 Y40.675 E1.11105
G1 X40.317 Y40.500 F7800.000
G1 F1800.000 E0.11105
G92 E0
G1 Z5.350 F7800.000
G1 X40.250 Y40.250 F7800.000
G1 E1.00000 F1800.000
G1 X39.750 Y40.250 E1.00707 F600.000
G1 X39.750 Y39.750 E1.01415
G1 X40.250 Y39.750 E1.02122
G1 X40.250 Y40.175 E1.02723
G1 X40.750 Y40.750 F7800.000
G1 X39.250 Y40.750 E1.04845 F600.000
G1 X39.250 Y39.250 E1.06967
G1 X40.750 Y39.250 E1.09090
G1 X40.750 Y40.675 E1.11105
G1 X40.317 Y40.500 F7800.000
G1 F1800.000 E0.11105
G92 E0
G1 Z5.550 F7800.000
G1 X40.250 Y40.250 F7800.000
G1 E1.00000 F1800.000
G1 X39.750 Y40.250 E1.00707 F600.000
G1 X39.750 Y39.750 E1.01415
G1 X40.250 Y39.750 E1.02122
G1 X40.250 Y40.175 E1.02723
G1 X40.750 Y40.750 F7800.000
G1 X39.250 Y40.750 E1.04845 F600.000
G1 X39.250 Y39.250 E1.06967
G1 X40.750 Y39.250 E1.09090
G1 X40.750 Y40.675 E1.11105
G1 X40.317 Y40.500 F7800.000
G1 F1800.000 E0.11105
G92 E0
G1 Z5.750 F7800.000
G1 X40.250 Y40.250 F7800.000
G1 E1.00000 F1800.000
G1 X39.750 Y40.250 E1.00707 F600.000
G1 X39.750 Y39.750 E1.01415
G1 X40.250 Y39.750 E1.02122
G1 X40.250 Y40.175 E1.02723
G1 X40.750 Y40.750 F7800.000
G1 X39.250 Y40.750 E1.04845 F600.000
G1 X39.250 Y39.250 E1.06967
G1 X40.750 Y39.250 E1.09090
G1 X40.750 Y40.675 E1.11105
G1 X40.317 Y40.500 F7800.000
G1 F1800.000 E0.11105
G92 E0
G1 Z5.950 F7800.000
G1 X40.250 Y40.250 F7800.000
G1 E1.00000 F1800.000
G1 X39.750 Y40.250 E1.00707 F600.000
G1 X39.750 Y39.750 E1.01415
G1 X40.250 Y39.750 E1.02122
G1 X40.250 Y40.175 E1.02723
G1 X40.750 Y40.750 F7800.000
G1 X39.250 Y40.750 E1.04845 F600.000
G1 X39.250 Y39.250 E1.06967
G1 X40.750 Y39.250 E1.09090
G1 X40.750 Y40.675 E1.11105
G1 X40.317 Y40.500 F7800.000
G1 F1800.000 E0.11105
G92 E0
G1 Z6.150 F7800.000
G1 X40.250 Y40.250 F7800.000
G1 E1.00000 F1800.000
G1 X39.750 Y40.250 E1.00707 F600.000
G1 X39.750 Y39.750 E1.01415
G1 X40.250 Y39.750 E1.02122
G1 X40.250 Y40.175 E1.02723
G1 X40.750 Y40.750 F7800.000
G1 X39.250 Y40.750 E1.04845 F600.000
G1 X39.250 Y39.250 E1.06967
G1 X40.750 Y39.250 E1.09090
G1 X40.750 Y40.675 E1.11105
G1 X40.317 Y40.500 F7800.000
G1 F1800.000 E0.11105
G92 E0
G1 Z6.350 F7800.000
G1 X40.250 Y40.250 F7800.000
G1 E1.00000 F1800.000
G1 X39.750 Y40.250 E1.00707 F600.000
G1 X39.750 Y39.750 E1.01415
G1 X40.250 Y39.750 E1.02122
G1 X40.250 Y40.175 E1.02723
G1 X40.750 Y40.750 F7800.000
G1 X39.250 Y40.750 E1.04845 F600.000
G1 X39.250 Y39.250 E1.06967
G1 X40.750 Y39.250 E1.09090
G1 X40.750 Y40.675 E1.11105
G1 X40.317 Y40.500 F7800.000
G1 F1800.000 E0.11105
G92 E0
G1 Z6.550 F7800.000
G1 X40.250 Y40.250 F7800.000
G1 E1.00000 F1800.000
G1 X39.750 Y40.250 E1.00707 F600.000
G1 X39.750 Y39.750 E1.01415
G1 X40.250 Y39.750 E1.02122
G1 X40.250 Y40.175 E1.02723
G1 X40.750 Y40.750 F7800.000
G1 X39.250 Y40.750 E1.04845 F600.000
G1 X39.250 Y39.250 E1.06967
G1 X40.750 Y39.250 E1.09090
G1 X40.750 Y40.675 E1.11105
G1 X40.317 Y40.500 F7800.000
G1 F1800.000 E0.11105
G92 E0
G1 Z6.750 F7800.000
G1 X40.250 Y40.250 F7800.000
G1 E1.00000 F1800.000
G1 X39.750 Y40.250 E1.00707 F600.000
G1 X39.750 Y39.750 E1.01415
G1 X40.250 Y39.750 E1.02122
G1 X40.250 Y40.175 E1.02723
G1 X40.750 Y40.750 F7800.000
G1 X39.250 Y40.750 E1.04845 F600.000
G1 X39.250 Y39.250 E1.06967
G1 X40.750 Y39.250 E1.09090
G1 X40.750 Y40.675 E1.11105
G1 X40.317 Y40.500 F7800.000
G1 F1800.000 E0.11105
G92 E0
G1 Z6.950 F7800.000
G1 X40.250 Y40.250 F7800.000
G1 E1.00000 F1800.000
G1 X39.750 Y40.250 E1.00707 F600.000
G1 X39.750 Y39.750 E1.01415
G1 X40.250 Y39.750 E1.02122
G1 X40.250 Y40.175 E1.02723
G1 X40.750 Y40.750 F7800.000
G1 X39.250 Y40.750 E1.04845 F600.000
G1 X39.250 Y39.250 E1.06967
G1 X40.750 Y39.250 E1.09090
G1 X40.750 Y40.675 E1.11105
G1 X40.317 Y40.500 F7800.000
G1 F1800.000 E0.11105
G92 E0
G1 Z7.150 F7800.000
G1 X40.250 Y40.250 F7800.000
G1 E1.00000 F1800.000
G1 X39.750 Y40.250 E1.00707 F600.000
G1 X39.750 Y39.750 E1.01415
G1 X40.250 Y39.750 E1.02122
G1 X40.250 Y40.175 E1.02723
G1 X40.750 Y40.750 F7800.000
G1 X39.250 Y40.750 E1.04845 F600.000
G1 X39.250 Y39.250 E1.06967
G1 X40.750 Y39.250 E1.09090
G1 X40.750 Y40.675 E1.11105
G1 X40.317 Y40.500 F7800.000
G1 F1800.000 E0.11105
G92 E0
G1 Z7.350 F7800.000
G1 X40.250 Y40.250 F7800.000
G1 E1.00000 F1800.000
G1 X39.750 Y40.250 E1.00707 F600.000
G1 X39.750 Y39.750 E1.01415
G1 X40.250 Y39.750 E1.02122
G1 X40.250 Y40.175 E1.02723
G1 X40.750 Y40.750 F7800.000
G1 X39.250 Y40.750 E1.04845 F600.000
G1 X39.250 Y39.250 E1.06967
G1 X40.750 Y39.250 E1.09090
G1 X40.750 Y40.675 E1.11105
G1 X40.317 Y40.500 F7800.000
G1 F1800.000 E0.11105
G92 E0
G1 Z7.550 F7800.000
G1 X40.250 Y40.250 F7800.000
G1 E1.00000 F1800.000
G1 X39.750 Y40.250 E1.00707 F600.000
G1 X39.750 Y39.750 E1.01415
G1 X40.250 Y39.750 E1.02122
G1 X40.250 Y40.175 E1.02723
G1 X40.750 Y40.750 F7800.000
G1 X39.250 Y40.750 E1.04845 F600.000
G1 X39.250 Y39.250 E1.06967
G1 X40.750 Y39.250 E1.09090
G1 X40.750 Y40.675 E1.11105
G1 X40.317 Y40.500 F7800.000
G1 F1800.000 E0.11105
G92 E0
G1 Z7.750 F7800.000
